X:58
T:T031H- Eamonn an Chnuic
S:O'Sullivan's Songs of the Irish
Q:1/4=60
L:1/4
M:C
K:E
(B,/C/)|(E3/4F/4) G/ F/EE/ F/|(G/e/) d/ B/ c/ (B/G/)|\
FG/ E/F3/2E/|E2E(B,3/4C/4)|(E3/4F/4) G/ F/ E3/2 F/|\
(G/e/) d/ B/c(B/G/)|(F3/4G/4) (B3/4G/4)F3/2 E/|E2E||\
(3 B/c/d/|(e3/4d/4) c/ B/ fe/ e/|dc3/4 B/4B e/d/|\
c/ B/ (G/F/) (E3/4F/4G/) B/|(c3/2 d/)eB,/ C/|\
(E3/4F/4G/)F/E(E/F/)|(G/e/) d/ B/c(B/G/)|\
(F3/4G/4) B/ G/ (F3/2 E/)|E2E|]
